public/icon/Z_ALL/Chdbits.svg

<?xml version="1.0" encoding="UTF-8"?>
<svg width="1025px" height="1024px" viewBox="0 0 1025 1024" version="1.1" xmlns="http://www.w3.org/2000/svg" xmlns:xlink="http://www.w3.org/1999/xlink">
    <title>Chdbits</title>
    <defs>
        <rect id="path-1" x="0" y="0" width="1024" height="1024"></rect>
    </defs>
    <g id="ICON-新版方图标" stroke="none" stroke-width="1" fill="none" fill-rule="evenodd">
        <g id="Chdbits" transform="translate(0.061, 0)">
            <mask id="mask-2" fill="white">
                <use xlink:href="#path-1"></use>
            </mask>
            <use id="蒙版" fill="#F1F6FB" xlink:href="#path-1"></use>
            <path d="M322.75,192.25 L665.5,192.25 C710.333333,189.25 749.166667,200.416667 782,225.75 C814.833333,251.083333 833.5,287.5 838,335 L741,335 C733.453235,314.931502 725.453235,302.098169 717,296.5 C708.546765,290.901831 691.380098,287.068498 665.5,285 L345.25,285 C329.693144,284.310703 317.026478,288.144036 307.25,296.5 C297.473522,304.855964 290.640189,317.689297 286.75,335 L286.75,689 C283.416667,702.166667 290.25,714.25 307.25,725.25 C324.25,736.25 336.916667,741.75 345.25,741.75 L665.5,741.75 C690.815475,740.38389 707.982142,736.550556 717,730.25 C726.017858,723.949444 734.017858,710.199444 741,689 L838,689 C832,735.166667 813.333333,771.833333 782,799 C750.666667,826.166667 711.833333,838 665.5,834.5 L322.75,834.5 C287.25,833.333333 256.583333,817.583333 230.75,787.25 C204.916667,756.916667 192,724.166667 192,689 L192,335 C196.327275,295.313179 209.243942,263.729846 230.75,240.25 C252.256058,216.770154 282.922725,200.770154 322.75,192.25 Z" id="矩形" fill="#FF0000" mask="url(#mask-2)"></path>
            <path d="M328.25,312 L657.75,312 C687.198617,313.482297 715.115283,322.232297 741.5,338.25 C767.884717,354.267703 789.384717,375.517703 806,402 C826.333333,431.126971 836.5,465.043637 836.5,503.75 C836.5,561.809544 829.25,579 818,606 C806.75,633 780.026375,663.010993 741.5,685.75 C715.81575,700.909338 687.899083,710.409338 657.75,714.25 L328.25,714.25 L328.25,637 L441,637 L441,528.25 L574.5,528.25 L574.5,637 L685.25,637 L685.25,382 L574.5,382 L574.5,488.75 L441,488.75 L441,382 L328.25,382 L328.25,312 Z" id="矩形" fill="#000000" mask="url(#mask-2)"></path>
        </g>
    </g>
</svg>

<svg xmlns="http://www.w3.org/2000/svg" xmlns:xlink="http://www.w3.org/1999/xlink" width="1025" height="1024"><defs><path id="a" d="M0 0h1024v1024H0z"/></defs><g fill="none" fill-rule="evenodd" transform="translate(.061)"><mask id="b" fill="#fff"><use xlink:href="#a"/></mask><use xlink:href="#a" fill="#F1F6FB"/><path fill="red" d="M322.75 192.25H665.5c44.833-3 83.667 8.167 116.5 33.5S833.5 287.5 838 335h-97c-7.547-20.068-15.547-32.902-24-38.5-8.453-5.598-25.62-9.432-51.5-11.5H345.25c-15.557-.69-28.224 3.144-38 11.5s-16.61 21.19-20.5 38.5v354c-3.333 13.167 3.5 25.25 20.5 36.25s29.667 16.5 38 16.5H665.5c25.315-1.366 42.482-5.2 51.5-11.5s17.018-20.05 24-41.25h97c-6 46.167-24.667 82.833-56 110s-70.167 39-116.5 35.5H322.75c-35.5-1.167-66.167-16.917-92-47.25S192 724.167 192 689V335c4.327-39.687 17.244-71.27 38.75-94.75 21.506-23.48 52.173-39.48 92-48" mask="url(#b)"/><path fill="#000" d="M328.25 312h329.5c29.449 1.482 57.365 10.232 83.75 26.25 26.385 16.018 47.885 37.268 64.5 63.75 20.333 29.127 30.5 63.044 30.5 101.75 0 58.06-7.25 75.25-18.5 102.25s-37.974 57.011-76.5 79.75c-25.684 15.16-53.6 24.66-83.75 28.5h-329.5V637H441V528.25h133.5V637h110.75V382H574.5v106.75H441V382H328.25z" mask="url(#b)"/></g></svg>
